;FLAVOR:Marlin
;TIME:7970
;Filament used: 4.09176m
;Layer height: 0.2
;MINX:114.768
;MINY:68.439
;MINZ:0.25
;MAXX:144.088
;MAXY:150.14
;MAXZ:114.05
;Generated with Cura_SteamEngine 4.12.1
M140 S60
M105
M190 S60
M104 S220
M105
M109 S220
M82 ;absolute extrusion mode
M82
G90
G28 X
G28 Y
G28 Z
G29
G91
G1 Z0
G90
M82
G92 E0
G1 X125 Y245 F3000
G1 Z0
G92 E0
G92 E0
G1 F3000 E-5
;LAYER_COUNT:570
;LAYER:0
M106 S25.5
G0 F3600 X136.896 Y149.271 Z0.25
;TYPE:SKIRT
G1 F3000 E0
G1 F1800 X136.57 Y149.581 E0.0155
G1 X136.194 Y149.828 E0.031
G1 X135.78 Y150.005 E0.04651
G1 X135.341 Y150.107 E0.06203
G1 X134.741 Y150.139 E0.08273
G1 X133.671 Y150.14 E0.1196
G1 X132.889 Y150.128 E0.14654
G1 X131.575 Y150.072 E0.19185
G1 X128.818 Y149.993 E0.28687
G1 X126.063 Y149.993 E0.38178
G1 X123.31 Y150.07 E0.47666
G1 X122.162 Y150.127 E0.51625
G1 X121.67 Y150.14 E0.53321
G1 X120.674 Y150.14 E0.56752
G1 X119.976 Y150.131 E0.59157
G1 X119.528 Y150.085 E0.60709
G1 X119.095 Y149.961 E0.6226
G1 X118.691 Y149.762 E0.63812
G1 X118.328 Y149.496 E0.65362
G1 X118.018 Y149.169 E0.66914
G1 X117.771 Y148.792 E0.68467
G1 X117.594 Y148.378 E0.70018
G1 X117.47 Y147.66 E0.72528
G1 X117.457 Y146.979 E0.74875
G1 X117.451 Y146.91 E0.75114
G1 X117.421 Y144.79 E0.82418
G1 X117.304 Y142.036 E0.91914
G1 X117.108 Y139.279 E1.01436
G1 X116.833 Y136.503 E1.11046
G1 X116.488 Y133.812 E1.20393
G1 X116.06 Y131.084 E1.29906
G1 X115.557 Y128.382 E1.39374
G1 X114.956 Y125.593 E1.49203
G1 X114.829 Y124.854 E1.51786
G1 X114.875 Y124.243 E1.53897
G1 X114.969 Y123.769 E1.55562
G1 X115.474 Y121.049 E1.65092
G1 X115.901 Y118.327 E1.74584
G1 X116.247 Y115.626 E1.83966
G1 X116.521 Y112.854 E1.93562
G1 X116.717 Y110.099 E2.03077
G1 X116.833 Y107.35 E2.12556
G1 X116.871 Y104.593 E2.22055
G1 X116.833 Y101.838 E2.31547
G1 X116.716 Y99.089 E2.41026
G1 X116.519 Y96.333 E2.50544
G1 X116.244 Y93.555 E2.60161
G1 X115.898 Y90.86 E2.69522
G1 X115.475 Y88.159 E2.78941
G1 X115.107 Y86.14 E2.86011
G1 X114.993 Y85.543 E2.88105
G1 X114.901 Y84.966 E2.90117
G1 X114.817 Y84.23 E2.92669
G1 X114.768 Y83.356 E2.95685
G1 X114.771 Y82.479 E2.98706
G1 X114.824 Y81.636 E3.01616
G1 X114.931 Y80.771 E3.04619
G1 X115.085 Y79.927 E3.07575
G1 X115.165 Y79.57 E3.08835
G1 X115.292 Y79.083 E3.10569
G1 X115.549 Y78.257 E3.13549
G1 X115.849 Y77.458 E3.16489
G1 X115.981 Y77.146 E3.17656
G1 X116.192 Y76.685 E3.19403
G1 X116.577 Y75.938 E3.22298
G1 X117.025 Y75.184 E3.2532
G1 X117.524 Y74.448 E3.28383
G1 X118.024 Y73.796 E3.31214
G1 X118.589 Y73.143 E3.34188
G1 X119.196 Y72.52 E3.37185
G1 X119.47 Y72.261 E3.38484
G1 X119.896 Y71.886 E3.40439
G1 X120.114 Y71.705 E3.41415
G1 X120.567 Y71.351 E3.43396
G1 X121.192 Y70.907 E3.46037
G1 X121.927 Y70.445 E3.49028
G1 X122.69 Y70.026 E3.52027
G1 X123.454 Y69.663 E3.54941
G1 X124.235 Y69.347 E3.57843
G1 X125.073 Y69.064 E3.6089
G1 X125.421 Y68.964 E3.62138
G1 X125.988 Y68.819 E3.64154
G1 X126.706 Y68.671 E3.66679
G1 X127.55 Y68.543 E3.6962
G1 X128.435 Y68.464 E3.72681
G1 X129.308 Y68.439 E3.7569
G1 X129.374 Y68.439 E3.75917
G1 X130.15 Y68.465 E3.78592
G1 X130.541 Y68.493 E3.79943
G1 X131.115 Y68.554 E3.81931
G1 X131.854 Y68.667 E3.84507
G1 X132.712 Y68.845 E3.87525
G1 X133.051 Y68.933 E3.88732
G1 X133.615 Y69.096 E3.90755
G1 X134.352 Y69.348 E3.93438
G1 X134.7 Y69.482 E3.94723
G1 X135.166 Y69.679 E3.96465
G1 X135.898 Y70.027 E3.99258
G1 X136.694 Y70.466 E4.02389
G1 X137.379 Y70.897 E4.05177
G1 X138.08 Y71.398 E4.08146
G1 X138.747 Y71.936 E4.11098
G1 X139.049 Y72.203 E4.12487
G1 X139.476 Y72.605 E4.14507
G1 X139.969 Y73.114 E4.16948
G1 X140.556 Y73.791 E4.20035
G1 X140.773 Y74.065 E4.21239
G1 X141.159 Y74.586 E4.23473
G1 X141.541 Y75.152 E4.25826
G1 X141.741 Y75.479 E4.27146
G1 X142.052 Y76.024 E4.29308
G1 X142.378 Y76.654 E4.31752
G1 X142.745 Y77.483 E4.34875
G1 X143.043 Y78.278 E4.378
G1 X143.301 Y79.118 E4.40827
G1 X143.5 Y79.934 E4.43721
G1 X143.654 Y80.77 E4.46649
G1 X143.762 Y81.665 E4.49755
G1 X143.813 Y82.483 E4.52578
G1 X143.815 Y83.368 E4.55627
G1 X143.765 Y84.241 E4.5864
G1 X143.667 Y85.074 E4.61529
G1 X143.518 Y85.916 E4.64475
G1 X143.504 Y85.987 E4.64724
G1 X143.087 Y87.866 E4.71355
G1 X142.528 Y90.582 E4.80908
G1 X142.053 Y93.286 E4.90366
G1 X141.652 Y96.018 E4.99879
G1 X141.334 Y98.706 E5.09203
G1 X141.083 Y101.502 E5.18874
G1 X140.916 Y104.221 E5.28259
G1 X140.862 Y106.004 E5.34405
G1 X140.825 Y106.867 E5.3738
G1 X140.771 Y107.29 E5.38849
G1 X140.5 Y108.553 E5.433
G1 X140.414 Y108.925 E5.44615
G1 X140.253 Y109.672 E5.47247
G1 X140.093 Y110.323 E5.49557
G1 X139.472 Y113.017 E5.59081
G1 X138.932 Y115.711 E5.68547
G1 X138.472 Y118.393 E5.77921
G1 X138.077 Y121.163 E5.87561
G1 X137.767 Y123.894 E5.97029
G1 X137.533 Y126.646 E6.06544
G1 X137.377 Y129.397 E6.16037
G1 X137.299 Y132.15 E6.25525
G1 X137.299 Y134.905 E6.35016
G1 X137.376 Y137.643 E6.44452
G1 X137.45 Y139.133 E6.49592
G1 X137.529 Y140.523 E6.54388
G1 X137.54 Y140.93 E6.55791
G1 X137.54 Y146.895 E6.7634
G1 X137.531 Y147.622 E6.78845
G1 X137.485 Y148.07 E6.80397
G1 X137.361 Y148.503 E6.81948
G1 X137.163 Y148.908 E6.83501
G1 X136.896 Y149.271 E6.85054
G0 F3600 X136.542 Y149.122
G1 F1800 X136.222 Y149.39 E6.86492
G1 X135.857 Y149.592 E6.87929
G1 X135.46 Y149.72 E6.89366
G1 X134.731 Y149.779 E6.91886
G1 X133.676 Y149.78 E6.9552
G1 X132.904 Y149.768 E6.9818
G1 X131.598 Y149.712 E7.02683
G1 X128.829 Y149.633 E7.12227
G1 X126.053 Y149.633 E7.2179
G1 X123.282 Y149.71 E7.3134
G1 X122.151 Y149.767 E7.35241
G1 X121.67 Y149.78 E7.36899
G1 X120.679 Y149.78 E7.40313
G1 X119.981 Y149.771 E7.42718
G1 X119.566 Y149.726 E7.44156
G1 X119.168 Y149.602 E7.45592
G1 X118.8 Y149.405 E7.4703
G1 X118.477 Y149.142 E7.48465
G1 X118.209 Y148.821 E7.49905
G1 X118.008 Y148.456 E7.51341
G1 X117.88 Y148.059 E7.52778
G1 X117.821 Y147.317 E7.55342
G1 X117.811 Y146.905 E7.56762
G1 X117.78 Y144.768 E7.64125
G1 X117.665 Y142.043 E7.73521
G1 X117.465 Y139.223 E7.8326
G1 X117.195 Y136.5 E7.92687
G1 X116.848 Y133.787 E8.0211
G1 X116.409 Y130.993 E8.11853
G1 X115.91 Y128.311 E8.21252
G1 X115.308 Y125.517 E8.31098
G1 X115.187 Y124.807 E8.33579
G1 X115.228 Y124.313 E8.35287
G1 X115.322 Y123.839 E8.36952
G1 X115.825 Y121.133 E8.46434
G1 X116.261 Y118.35 E8.56138
G1 X116.608 Y115.636 E8.65564
G1 X116.879 Y112.902 E8.75029
G1 X117.078 Y110.093 E8.8473
G1 X117.192 Y107.37 E8.94119
G1 X117.232 Y104.593 E9.03687
G1 X117.192 Y101.817 E9.13252
G1 X117.074 Y99.031 E9.22858
G1 X116.879 Y96.307 E9.32266
G1 X116.606 Y93.552 E9.41804
G1 X116.258 Y90.835 E9.51241
G1 X115.824 Y88.068 E9.6089
G1 X115.462 Y86.076 E9.67865
G1 X115.349 Y85.486 E9.69934
G1 X115.258 Y84.919 E9.71912
G1 X115.175 Y84.193 E9.7443
G1 X115.128 Y83.341 E9.77369
G1 X115.131 Y82.485 E9.80318
G1 X115.183 Y81.663 E9.83156
G1 X115.287 Y80.82 E9.86082
G1 X115.438 Y79.996 E9.88968
G1 X115.514 Y79.661 E9.90152
G1 X115.659 Y79.108 E9.92121
G1 X115.891 Y78.368 E9.94793
G1 X116.184 Y77.589 E9.9766
G1 X116.309 Y77.296 E9.98757
G1 X116.554 Y76.764 E10.00775
G1 X116.895 Y76.107 E10.03325
G1 X117.332 Y75.372 E10.06271
G1 X117.818 Y74.654 E10.09258
G1 X118.306 Y74.019 E10.12017
G1 X118.857 Y73.383 E10.14916
G1 X119.449 Y72.776 E10.17837
G1 X119.708 Y72.531 E10.19065
G1 X120.127 Y72.162 E10.20989
G1 X120.336 Y71.988 E10.21926
G1 X120.781 Y71.64 E10.23872
G1 X121.398 Y71.203 E10.26476
G1 X122.114 Y70.752 E10.29392
G1 X122.859 Y70.344 E10.32318
G1 X123.604 Y69.99 E10.35159
G1 X124.366 Y69.682 E10.37991
G1 X125.184 Y69.407 E10.40964
G1 X125.51 Y69.312 E10.42134
G1 X126.067 Y69.17 E10.44114
G1 X126.775 Y69.025 E10.46604
G1 X127.599 Y68.9 E10.49475
G1 X128.462 Y68.823 E10.5246
G1 X129.313 Y68.799 E10.55393
G1 X129.37 Y68.799 E10.55589
G1 X130.134 Y68.824 E10.58222
G1 X130.503 Y68.851 E10.59497
G1 X131.067 Y68.911 E10.61451
G1 X131.796 Y69.022 E10.63991
G1 X132.635 Y69.197 E10.66944
G1 X132.952 Y69.28 E10.68073
G1 X133.505 Y69.439 E10.70055
G1 X134.232 Y69.687 E10.72701
G1 X134.56 Y69.814 E10.73913
G1 X135.083 Y70.036 E10.75871
G1 X135.739 Y70.35 E10.78376
G1 X136.516 Y70.779 E10.81434
G1 X137.183 Y71.199 E10.84149
G1 X137.866 Y71.688 E10.87043
G1 X138.517 Y72.213 E10.89924
G1 X138.803 Y72.466 E10.9124
G1 X139.221 Y72.86 E10.93219
G1 X139.708 Y73.362 E10.95628
G1 X140.281 Y74.023 E10.98642
G1 X140.484 Y74.279 E10.99767
G1 X140.864 Y74.792 E11.01967
G1 X141.24 Y75.35 E11.04285
G1 X141.429 Y75.658 E11.0553
G1 X141.736 Y76.195 E11.07661
G1 X142.056 Y76.815 E11.10064
G1 X142.414 Y77.624 E11.13112
G1 X142.704 Y78.399 E11.15963
G1 X142.956 Y79.219 E11.18918
G1 X143.149 Y80.014 E11.21736
G1 X143.299 Y80.829 E11.24591
G1 X143.404 Y81.703 E11.27624
G1 X143.454 Y82.5 E11.30375
G1 X143.455 Y83.364 E11.33351
G1 X143.406 Y84.216 E11.36291
G1 X143.31 Y85.027 E11.39105
G1 X143.165 Y85.848 E11.41977
G1 X142.735 Y87.788 E11.48823
G1 X142.173 Y90.518 E11.58425
G1 X141.701 Y93.208 E11.67834
G1 X141.297 Y95.959 E11.77413
G1 X140.971 Y98.717 E11.8698
G1 X140.726 Y101.449 E11.9643
G1 X140.556 Y104.221 E12.05997
G1 X140.502 Y105.988 E12.12088
G1 X140.465 Y106.851 E12.15063
G1 X140.419 Y107.215 E12.16327
G1 X140.149 Y108.472 E12.20757
G1 X140.063 Y108.844 E12.22072
G1 X139.903 Y109.586 E12.24687
G1 X139.743 Y110.237 E12.26996
G1 X139.126 Y112.913 E12.36457
G1 X138.584 Y115.614 E12.45948
G1 X138.106 Y118.403 E12.55696
G1 X137.724 Y121.084 E12.65025
G1 X137.408 Y123.863 E12.74661
G1 X137.176 Y126.585 E12.84072
G1 X137.016 Y129.41 E12.9382
G1 X136.939 Y132.14 E13.03229
G1 X136.939 Y134.915 E13.12789
G1 X137.018 Y137.694 E13.22367
G1 X137.09 Y139.154 E13.27402
G1 X137.169 Y140.534 E13.32164
G1 X137.18 Y140.93 E13.33529
G1 X137.18 Y146.891 E13.54065
G1 X137.171 Y147.618 E13.5657
G1 X137.126 Y148.033 E13.58008
G1 X137.003 Y148.431 E13.59443
G1 X136.806 Y148.799 E13.60881
G1 X136.542 Y149.122 E13.62318
G1 F3000 E8.62318
G0 F3600 X123.775 Y125.857
;TYPE:SUPPORT
G1 F3000 E13.62318
G1 F1800 X122.482 Y125.857 E13.66773
G1 X121.835 Y124.737 E13.71229
G1 X122.482 Y123.617 E13.75685
G1 X123.775 Y123.617 E13.80139
G1 X124.422 Y124.737 E13.84595
G1 X123.775 Y125.857 E13.89051
G0 F3600 X123.928 Y125.349
G1 F1800 X122.326 Y125.349 E13.9457
G0 F3600 X122.682 Y125.737
G1 F1800 X122.682 Y123.737 E14.0146
G1 F3000 E9.0146
G0 F3600 X130.969 Y108.885
G1 F3000 E14.0146
G1 F1800 X130.969 Y108.643 E14.02294
G1 X135.172 Y108.643 E14.16773
G1 X135.172 Y102.943 E14.3641
G1 X137.369 Y102.943 E14.43979
G1 X137.369 Y103.556 E14.46091
G1 X137.756 Y103.943 E14.47976
G1 X138.117 Y103.943 E14.4922
G1 X138.117 Y106.583 E14.58315
G1 X138.003 Y106.583 E14.58707
G1 X137.616 Y106.97 E14.60593
G1 X137.616 Y108.885 E14.6719
G1 X130.969 Y108.885 E14.90089
G1 F3000 E9.90089
G0 F3600 X135.292 Y106.68
G1 F3000 E14.90089
G1 F1800 X137.734 Y106.68 E14.98502
G1 F3000 E9.98502
G0 F3600 X137.656 Y104.013
G1 F3000 E14.98502
G1 F1800 X135.292 Y104.013 E15.06646
G0 F3600 X136.017 Y103.063
G1 F1800 X136.017 Y108.765 E15.2629
G1 F3000 E10.2629
;MESH:calle.STL
G0 F3600 X133.54 Y147.06
;TYPE:WALL-INNER
G1 F3000 E15.2629
G1 F1800 X133.54 Y145.06 E15.3318
G1 X121.46 Y145.06 E15.74796
G1 X121.46 Y147.06 E15.81686
G1 X120.54 Y147.06 E15.84855
G1 X120.54 Y141.14 E16.0525
G1 X121.46 Y141.14 E16.0842
G1 X121.46 Y143.14 E16.1531
G1 X133.54 Y143.14 E16.56926
G1 X133.54 Y141.14 E16.63816
G1 X134.46 Y141.14 E16.66985
G1 X134.46 Y147.06 E16.8738
G1 X133.54 Y147.06 E16.90549
G0 F3600 X133.18 Y147.42
;TYPE:WALL-OUTER
G1 F1800 X133.18 Y145.42 E16.97439
G1 X121.82 Y145.42 E17.36575
G1 X121.82 Y147.42 E17.43465
G1 X120.18 Y147.42 E17.49115
G1 X120.18 Y140.78 E17.7199
G1 X121.82 Y140.78 E17.7764
G1 X121.82 Y142.78 E17.8453
G1 X133.18 Y142.78 E18.23666
G1 X133.18 Y140.78 E18.30556
G1 X134.82 Y140.78 E18.36206
G1 X134.82 Y147.42 E18.59081
G1 X133.18 Y147.42 E18.64731
G0 F3600 X133.18 Y147.22
G0 X133.576 Y147.024
G0 X133.89 Y146.71
;TYPE:SKIN
G1 F1800 X133.89 Y144.71 E18.71621
G1 X121.11 Y144.71 E19.15649
G1 X121.11 Y146.71 E19.22539
G1 X120.89 Y146.71 E19.23297
G1 X120.89 Y141.49 E19.4128
G1 X121.11 Y141.49 E19.42038
G1 X121.11 Y143.49 E19.48928
G1 X133.89 Y143.49 E19.92955
G1 X133.89 Y141.49 E19.99845
G1 X134.11 Y141.49 E20.00603
G1 X134.11 Y146.71 E20.18586
G1 X133.89 Y146.71 E20.19344
G1 F3000 E15.19344
G0 F3600 X133.95 Y144.132
G1 F3000 E20.19344
G1 F1800 X133.467 Y143.649 E20.21698
G0 F3600 X132.957 Y143.649
G1 F1800 X133.858 Y144.549 E20.26085
G0 F3600 X133.349 Y144.549
G1 F1800 X132.448 Y143.649 E20.30472
G0 F3600 X131.939 Y143.649
G1 F1800 X132.839 Y144.549 E20.34857
G0 F3600 X132.33 Y144.549
G1 F1800 X131.43 Y143.649 E20.39242
G0 F3600 X130.921 Y143.649
G1 F1800 X131.821 Y144.549 E20.43627
G0 F3600 X131.312 Y144.549
G1 F1800 X130.412 Y143.649 E20.48011
G0 F3600 X129.903 Y143.649
G1 F1800 X130.803 Y144.549 E20.52396
G0 F3600 X130.294 Y144.549
G1 F1800 X129.394 Y143.649 E20.56781
G0 F3600 X128.885 Y143.649
G1 F1800 X129.785 Y144.549 E20.61166
G0 F3600 X129.276 Y144.549
G1 F1800 X128.375 Y143.649 E20.65553
G0 F3600 X127.866 Y143.649
G1 F1800 X128.766 Y144.549 E20.69938
G0 F3600 X128.257 Y144.549
G1 F1800 X127.357 Y143.649 E20.74323
G0 F3600 X126.848 Y143.649
G1 F1800 X127.748 Y144.549 E20.78708
G0 F3600 X127.239 Y144.549
G1 F1800 X126.339 Y143.649 E20.83092
G0 F3600 X125.83 Y143.649
G1 F1800 X126.73 Y144.549 E20.87477
G0 F3600 X126.221 Y144.549
G1 F1800 X125.321 Y143.649 E20.91862
G0 F3600 X124.812 Y143.649
G1 F1800 X125.712 Y144.549 E20.96247
G0 F3600 X125.203 Y144.549
G1 F1800 X124.303 Y143.649 E21.00632
G0 F3600 X123.793 Y143.649
G1 F1800 X124.694 Y144.549 E21.05019
G0 F3600 X124.184 Y144.549
G1 F1800 X123.284 Y143.649 E21.09404
G0 F3600 X122.775 Y143.649
G1 F1800 X123.675 Y144.549 E21.13789
G0 F3600 X123.166 Y144.549
G1 F1800 X122.266 Y143.649 E21.18173
G0 F3600 X121.757 Y143.649
G1 F1800 X122.657 Y144.549 E21.22558
G0 F3600 X122.148 Y144.549
G1 F1800 X121.248 Y143.649 E21.26943
G0 F3600 X121.049 Y143.959
G1 F1800 X121.639 Y144.549 E21.29818
G0 F3600 X121.13 Y144.549
G1 F1800 X121.049 Y144.468 E21.30212
G1 F3000 E16.30212
;MESH:vis.STL
G0 F3600 X124.595 Y127.277
;TYPE:WALL-INNER
G1 F3000 E21.30212
G1 F1800 X126.062 Y124.737 E21.40317
G1 X124.595 Y122.197 E21.50422
G1 X121.662 Y122.197 E21.60527
G1 X120.195 Y124.737 E21.70632
G1 X121.662 Y127.277 E21.80737
G1 X124.595 Y127.277 E21.90841
G0 F3600 X124.387 Y126.917
;TYPE:WALL-OUTER
G1 F1800 X125.646 Y124.737 E21.99514
G1 X124.387 Y122.557 E22.08186
G1 X121.87 Y122.557 E22.16857
G1 X120.611 Y124.737 E22.2553
G1 X121.87 Y126.917 E22.34203
G1 X124.387 Y126.917 E22.42874
G0 F3600 X124.487 Y126.744
G0 X124.828 Y126.942
G1 F3000 E17.42874
G0 F3600 X125.703 Y129.197
;TYPE:WALL-INNER
G1 F3000 E22.42874
G1 F1800 X120.554 Y129.197 E22.60612
G1 X117.979 Y124.737 E22.78354
G1 X120.554 Y120.277 E22.96096
G1 X125.703 Y120.277 E23.13835
G1 X128.278 Y124.737 E23.31577
G1 X125.703 Y129.197 E23.49318
G0 F3600 X125.911 Y129.557
;TYPE:WALL-OUTER
G1 F1800 X120.346 Y129.557 E23.6849
G1 X117.563 Y124.737 E23.87664
G1 X120.346 Y119.917 E24.06839
G1 X125.911 Y119.917 E24.2601
G1 X128.694 Y124.737 E24.45184
G1 X125.911 Y129.557 E24.64359
G0 F3600 X125.711 Y129.557
G0 X125.711 Y129.161
G0 X125.501 Y128.847
;TYPE:SKIN
G1 F1800 X120.756 Y128.847 E24.80705
G1 X118.383 Y124.737 E24.97055
G1 X120.756 Y120.627 E25.13405
G1 X125.501 Y120.627 E25.29752
G1 X127.874 Y124.737 E25.46101
G1 X125.501 Y128.847 E25.62451
G0 F3600 X124.797 Y127.627
G1 F1800 X126.466 Y124.737 E25.73948
G1 X124.797 Y121.847 E25.85445
G1 X121.46 Y121.847 E25.96941
G1 X119.791 Y124.737 E26.08439
G1 X121.46 Y127.627 E26.19936
G1 X124.797 Y127.627 E26.31432
G1 F3000 E21.31432
G0 F3600 X121.049 Y128.686
G1 F3000 E26.31432
G1 F1800 X120.57 Y128.207 E26.33766
G0 F3600 X121.558 Y128.686
G1 F1800 X119.875 Y127.003 E26.41965
G1 X119.805 Y126.933
G0 F3600 X120.944 Y127.053
G1 F1800 X118.588 Y124.698 E26.53441
G0 F3600 X118.775 Y124.375
G1 F1800 X120.247 Y125.848 E26.60615
G1 X120.317 Y125.918
G0 F3600 X119.181 Y125.799
G1 F1800 X122.067 Y128.686 E26.74679
G0 F3600 X122.576 Y128.686
G1 F1800 X121.676 Y127.786 E26.79063
G0 F3600 X122.185 Y127.786
G1 F1800 X123.086 Y128.686 E26.83451
G0 F3600 X123.595 Y128.686
G1 F1800 X122.695 Y127.786 E26.87835
G0 F3600 X123.204 Y127.786
G1 F1800 X124.104 Y128.686 E26.9222
